T: Glenside, The
M: 2/4
L: 1/8
K: Edor
|: B2 B>A | FA DE | B2 B>A | B/c/d ed |
B2 B>A | FA DE | FD AF | E2 E2 :|
|: Be ed/e/ | f>e dA | Be ed | e/f/e/d/ Bc |
d>e dB | AF DE/F/ | GE FD | E2 E2 :|
Submitted by hetty - May 1st, 2004
